packages/axiom-materials/src/icon_svgs/question-mark.svg

<svg height="16" viewBox="0 0 16 16" width="16" xmlns="http://www.w3.org/2000/svg"><path d="m6.625 13c0-.759.61722222-1.375 1.375-1.375s1.375.616 1.375 1.375c0 .7577778-.61722222 1.375-1.375 1.375s-1.375-.6172222-1.375-1.375zm2.375-2.75h-2v-.188c0-.62.221-1.21.616-1.753.281-.387.615-.701.91-.978l.095-.09c.627-.593.982-.963.976-1.682 0-.885-.717-1.559-1.597-1.559s-1.597.674-1.597 1.555v.445h-1.958v-.445c0-1.96 1.595-3.555 3.555-3.555 1.955 0 3.55 1.594 3.555 3.553.009 1.6-1.03 2.583-1.587 3.111l-.078.073c-.275.259-.534.503-.695.723-.157.217-.195.38-.195.602z" fill-rule="evenodd"/></svg>

<?xml version="1.0" encoding="UTF-8"?>
<svg width="16px" height="16px" viewBox="0 0 16 16" version="1.1" xmlns="http://www.w3.org/2000/svg" xmlns:xlink="http://www.w3.org/1999/xlink">
    <!-- Generator: sketchtool 43.2 (39069) - http://www.bohemiancoding.com/sketch -->
    <title>question-mark</title>
    <desc>Created with sketchtool.</desc>
    <defs></defs>
    <g id="Page-1" stroke="none" stroke-width="1" fill="none" fill-rule="evenodd">
        <g id="question-mark" fill="#000000">
            <path d="M6.625,13 C6.625,12.241 7.24222222,11.625 8,11.625 C8.75777778,11.625 9.375,12.241 9.375,13 C9.375,13.7577778 8.75777778,14.375 8,14.375 C7.24222222,14.375 6.625,13.7577778 6.625,13 Z M9,10.25 L7,10.25 L7,10.062 C7,9.442 7.221,8.852 7.616,8.309 C7.897,7.922 8.231,7.608 8.526,7.331 L8.621,7.241 C9.248,6.648 9.603,6.278 9.597,5.559 C9.597,4.674 8.88,4 8,4 C7.12,4 6.403,4.674 6.403,5.555 L6.403,6 L4.445,6 L4.445,5.555 C4.445,3.595 6.04,2 8,2 C9.955,2 11.55,3.594 11.555,5.553 C11.564,7.153 10.525,8.136 9.968,8.664 L9.89,8.737 C9.615,8.996 9.356,9.24 9.195,9.46 C9.038,9.677 9,9.84 9,10.062 L9,10.25 Z" id="Help"></path>
        </g>
    </g>
</svg>
